icon-themes/sifr_svg/cmd/lc_text.svg

<svg viewBox="0 0 24 24" xmlns="http://www.w3.org/2000/svg"><path d="m3 2c-.554 0-1 .3794493-1 1v3h2v-2h5.5c.276142 0 .5.2238576.5.5v14.5c0 1.104569-.895431 2-2 2v1h8v-1c-1.104569 0-2-.895431-2-2v-14.5c0-.2761424 0-.5.5-.5h5.5v2h2v-3c0-.554-.446-1-1-1z" fill="#555753"/></svg>

<svg xmlns="http://www.w3.org/2000/svg" viewBox="0 0 24 24">
  <path
     d="M 3,2 C 2.446,2 2,2.3794493 2,3 V 6 H 4 V 4 H 9.5 C 9.776142,4 10,4.2238576 10,4.5 V 19 c 0,1.104569 -0.895431,2 -2,2 v 1 h 8 v -1 c -1.104569,0 -2,-0.895431 -2,-2 V 4.5 C 14,4.2238576 14,4 14.5,4 H 20 v 2 h 2 V 3 C 22,2.446 21.554,2 21,2 Z"
     style="fill:#555753"
     />
</svg>
